X: 25886
T: Matt Peoples'
R: reel
M: 4/4
K: Adorian
|:~A2 eA BAeA|~B2 gd BAGB|~A2 eA BAeA|BAGB A2 Ae:|
aeea agef|gB ~B2 g2 fg|aeea aged|BAGA BAAe|
aeea agef|gB ~B2 g2 fg|afge fded|BAGA BAAe||

